google-analytics-dashboard-for-wp/lite/assets/vue/img/icon-em.svg

<svg width="30" height="26" viewBox="0 0 57 50" fill="none" xmlns="http://www.w3.org/2000/svg">
	<path
		d="M12.1247 30.0416H26.5473C28.3439 32.7628 31.428 34.577 34.9278 34.577H12.1247C10.8724 34.577 9.85693 33.5616 9.85693 32.3093C9.85693 31.057 10.8724 30.0416 12.1247 30.0416Z"
		fill="#E63060"/>
	<path
		d="M7.60683 26.8315C6.35454 26.8315 5.33911 25.8161 5.33911 24.5638C5.33911 23.3115 6.35454 22.2961 7.60683 22.2961H25.1867C25.0229 23.0217 24.9322 23.7827 24.9322 24.5638C24.9322 25.3449 25.0229 26.1058 25.1867 26.8315H7.60683Z"
		fill="#A735DF"/>
	<path
		d="M3.07143 19.0834C1.81914 19.0834 0.803711 18.068 0.803711 16.8157C0.803711 15.5635 1.81914 14.548 3.07143 14.548H34.9278C34.8547 14.548 34.764 14.548 34.691 14.548H34.6355C34.5624 14.548 34.4894 14.548 34.3987 14.548H34.381C34.308 14.548 34.2349 14.548 34.1643 14.5657H34.1291C34.056 14.5657 33.9829 14.5833 33.8922 14.5833H33.8569C33.7839 14.5833 33.7309 14.6009 33.6579 14.6009H33.6226C33.5495 14.6186 33.4765 14.6186 33.4059 14.6362H33.3505C33.2043 14.6538 33.0607 14.6916 32.9146 14.7093L32.8591 14.7269C32.7861 14.7446 32.7332 14.7622 32.6601 14.7622L32.6047 14.7798L32.4409 14.8151L32.3854 14.8327C32.3124 14.8504 32.2595 14.868 32.1864 14.8882L32.1511 14.9058C32.0957 14.9235 32.0428 14.9411 31.9873 14.9612L31.9143 14.9789L31.7505 15.0343L31.6774 15.052C31.6043 15.0696 31.5514 15.0872 31.4784 15.125L31.4431 15.1427L31.2969 15.1981L31.2239 15.2334C31.1684 15.251 31.1155 15.2888 31.0601 15.3064L30.987 15.3417L30.861 15.3972L30.788 15.4324C30.7325 15.4501 30.6796 15.4879 30.6242 15.5055L30.5511 15.5408L30.4428 15.5962L30.3168 15.6693L30.2084 15.7247L30.1177 15.7801L30.027 15.8356L29.901 15.9086L29.828 15.9641L29.7373 16.0195L29.6113 16.0926L29.5206 16.148L29.4651 16.1833C29.3568 16.2564 29.2283 16.3471 29.1199 16.4201L29.1023 16.4378C29.0292 16.4932 28.9561 16.5461 28.8831 16.6016L28.8654 16.6192C28.7571 16.7099 28.6286 16.8006 28.5202 16.8913L28.5026 16.909C27.7769 17.5263 27.1243 18.252 26.5977 19.0683H3.12686L3.07143 19.0834Z"
		fill="#6433F9"/>
	<path
		d="M45.5055 24.5638C45.5055 18.7232 40.771 13.9861 34.9279 13.9861C29.0847 13.9861 24.3502 18.7206 24.3502 24.5638C24.3502 30.4069 29.0847 35.1414 34.9279 35.1414C40.771 35.1414 45.5055 30.4044 45.5055 24.5638ZM25.9477 24.5638C25.9477 19.5924 29.9742 15.5836 34.9279 15.5836C39.8992 15.5836 43.908 19.6101 43.908 24.5638C43.908 29.5351 39.8816 33.5439 34.9279 33.5439C29.9565 33.5439 25.9477 29.515 25.9477 24.5638Z"
		fill="#210F59"/>
	<path
		d="M54.6116 10.6677L37.0872 0.599055C35.709 -0.199685 34.1291 -0.199685 32.7332 0.599055L15.2088 10.6677C15.045 10.7584 14.8812 10.8668 14.7376 10.9751H23.1005L34.8372 4.24504C34.8548 4.24504 34.9102 4.20976 34.9279 4.20976C34.9455 4.20976 35.0009 4.2274 35.0186 4.24504L52.543 14.3137C52.5606 14.3137 52.5984 14.349 52.616 14.3691C52.6337 14.4044 52.6337 14.4598 52.6337 14.4775V34.6702C52.6337 34.7055 52.6337 34.7609 52.616 34.7786C52.616 34.7962 52.5606 34.8139 52.543 34.834L35.0186 44.9027C35.0009 44.9027 34.9455 44.938 34.9279 44.938C34.9102 44.938 34.8548 44.9203 34.8372 44.9027L23.1005 38.1726H14.7351C14.8812 38.2809 32.7307 48.5487 32.7307 48.5487C34.109 49.3474 35.6888 49.3474 37.0847 48.5487L54.6091 38.48C56.005 37.6636 56.8038 36.2854 56.8038 34.6702V14.4775C56.8063 12.8624 56.0101 11.4639 54.6116 10.6677Z"
		fill="#210F59"/>
	<path
		d="M34.9278 28.754C37.242 28.754 39.118 26.878 39.118 24.5638C39.118 22.2496 37.242 20.3735 34.9278 20.3735C32.6136 20.3735 30.7375 22.2496 30.7375 24.5638C30.7375 26.878 32.6136 28.754 34.9278 28.754Z"
		fill="#210F59"/>
</svg>

<svg width="30" height="26" viewBox="0 0 57 50" fill="none" xmlns="http://www.w3.org/2000/svg"><path d="M12.125 30.042h14.422c1.797 2.72 4.881 4.535 8.38 4.535H12.126a2.268 2.268 0 010-4.535z" fill="#E63060"/><path d="M7.607 26.831a2.268 2.268 0 010-4.535h17.58a10.303 10.303 0 00-.255 2.268c0 .78.09 1.542.255 2.267H7.607z" fill="#A735DF"/><path d="M3.071 19.083a2.268 2.268 0 010-4.535h31.857-.548c-.073 0-.146 0-.217.018h-.035c-.073 0-.146.017-.237.017h-.035c-.073 0-.126.018-.2.018h-.034c-.073.018-.146.018-.217.035h-.056c-.146.018-.29.056-.435.073l-.056.018c-.073.018-.126.035-.199.035l-.055.018-.164.035-.056.018c-.073.017-.125.035-.199.055l-.035.018a4.447 4.447 0 00-.164.055l-.073.018-.164.055-.073.018a.791.791 0 00-.199.073l-.035.018-.146.055-.073.035c-.056.018-.108.056-.164.073l-.073.036-.126.055-.073.035c-.055.018-.108.056-.164.073l-.073.036-.108.055-.126.073-.109.056-.09.055-.091.056-.126.073-.073.055-.09.056-.127.073-.09.055-.056.035-.345.237-.018.018c-.073.055-.146.108-.219.164l-.018.017c-.108.09-.236.182-.345.272l-.017.018a9.89 9.89 0 00-1.905 2.16H3.127l-.056.014z" fill="#6433F9"/><path d="M45.505 24.564c0-5.84-4.734-10.578-10.577-10.578S24.35 18.721 24.35 24.564c0 5.843 4.735 10.577 10.578 10.577 5.843 0 10.578-4.737 10.578-10.577zm-19.557 0a8.976 8.976 0 018.98-8.98 8.976 8.976 0 018.98 8.98 8.976 8.976 0 01-8.98 8.98 8.978 8.978 0 01-8.98-8.98z" fill="#210F59"/><path d="M54.612 10.668L37.087.599C35.71-.2 34.13-.2 32.733.6L15.21 10.668c-.164.09-.328.199-.471.307H23.1l11.736-6.73c.018 0 .073-.035.09-.035a.19.19 0 01.092.035l17.524 10.069c.018 0 .055.035.073.055.018.035.018.09.018.108V34.67c0 .035 0 .09-.018.109 0 .017-.055.035-.073.055L35.019 44.903c-.018 0-.073.035-.091.035a.195.195 0 01-.09-.035L23.1 38.173h-8.365c.146.108 17.996 10.376 17.996 10.376 1.378.798 2.958.798 4.354 0L54.609 38.48c1.396-.816 2.195-2.195 2.195-3.81V14.477c.002-1.615-.794-3.013-2.192-3.81z" fill="#210F59"/><path d="M34.928 28.754a4.19 4.19 0 100-8.38 4.19 4.19 0 000 8.38z" fill="#210F59"/></svg>
